images/direction-7.svg

<svg width="147" height="128" viewBox="0 0 147 128" fill="none" xmlns="http://www.w3.org/2000/svg">
<path opacity="0.5" d="M45 81.5C45 83.6699 44 86.5 44 86.5C44 86.5 30.3565 92 23 92C10.8497 92 1 87.299 1 81.5C1 75.701 10.8497 71 23 71C35.1503 71 45 76 45 81.5Z" fill="#2A94E2"/>
<path opacity="0.5" d="M51 63.5C51 65.6699 52 68.5 52 68.5C52 68.5 66.6435 74 74 74C86.1503 74 96 69.299 96 63.5C96 57.701 86.1503 53 74 53C61.8497 53 51 58 51 63.5Z" fill="#2A94E2"/>
<path opacity="0.5" d="M102 45.5C102 47.6699 103 50.5 103 50.5C103 50.5 117.643 56 125 56C137.15 56 147 51.299 147 45.5C147 39.701 135.15 35 123 35C110.85 35 102 40 102 45.5Z" fill="#2A94E2"/>
<path d="M101.9 45.6794C101.9 43.2215 103.957 40.7802 107.987 38.9028C111.958 37.053 117.57 35.9 124 35.9C130.436 35.9 136.049 36.9994 140.018 38.8215C144.035 40.6659 146.1 43.1054 146.1 45.6794V117.321C146.1 119.778 144.043 122.22 140.013 124.097C136.042 125.947 130.43 127.1 124 127.1C117.57 127.1 111.958 125.947 107.987 124.097C103.957 122.22 101.9 119.778 101.9 117.321V45.6794Z" stroke="black" stroke-width="1.8"/>
<path d="M50.9 62.7929C50.9 60.3084 53.004 57.8373 57.1273 55.9372C61.1884 54.0658 66.9275 52.9 73.5 52.9C80.0725 52.9 85.8116 54.0658 89.8727 55.9372C93.996 57.8373 96.1 60.3084 96.1 62.7929V117.207C96.1 119.692 93.996 122.163 89.8727 124.063C85.8116 125.934 80.0725 127.1 73.5 127.1C66.9275 127.1 61.1884 125.934 57.1273 124.063C53.004 122.163 50.9 119.692 50.9 117.207V62.7929Z" stroke="black" stroke-width="1.8"/>
<path d="M0.9 80.8327C0.9 78.3248 2.96714 75.8468 6.99151 73.945C10.9609 72.0693 16.5721 70.9 23 70.9C29.5469 70.9 35.1566 72.0155 39.0939 73.8616C43.0692 75.7254 45.1 78.1991 45.1 80.8327V117.167C45.1 119.675 43.0329 122.153 39.0085 124.055C35.0391 125.931 29.4279 127.1 23 127.1C16.5721 127.1 10.9609 125.931 6.99151 124.055C2.96714 122.153 0.9 119.675 0.9 117.167V80.8327Z" stroke="black" stroke-width="1.8"/>
<path d="M23 60L55 28H96L123 1M123 1V15M123 1H109" stroke="black" stroke-width="1.8"/>
</svg>

<svg width="147" height="128" fill="none" xmlns="http://www.w3.org/2000/svg"><path opacity=".5" d="M45 81.5c0 2.17-1 5-1 5S30.357 92 23 92C10.85 92 1 87.299 1 81.5S10.85 71 23 71s22 5 22 10.5zm6-18c0 2.17 1 5 1 5S66.644 74 74 74c12.15 0 22-4.701 22-10.5S86.15 53 74 53s-23 5-23 10.5zm51-18c0 2.17 1 5 1 5s14.643 5.5 22 5.5c12.15 0 22-4.701 22-10.5S135.15 35 123 35s-21 5-21 10.5z" fill="#2A94E2"/><path d="M101.9 45.68c0-2.459 2.057-4.9 6.087-6.777 3.971-1.85 9.583-3.003 16.013-3.003 6.436 0 12.049 1.1 16.018 2.922 4.017 1.844 6.082 4.283 6.082 6.857v71.642c0 2.457-2.057 4.899-6.087 6.776-3.971 1.85-9.583 3.003-16.013 3.003-6.43 0-12.042-1.153-16.013-3.003-4.03-1.877-6.087-4.319-6.087-6.776V45.679zm-51 17.113c0-2.485 2.104-4.956 6.227-6.856 4.061-1.871 9.8-3.037 16.373-3.037s12.312 1.166 16.373 3.037c4.123 1.9 6.227 4.371 6.227 6.856v54.414c0 2.485-2.104 4.956-6.227 6.856-4.061 1.871-9.8 3.037-16.373 3.037s-12.312-1.166-16.373-3.037c-4.123-1.9-6.227-4.371-6.227-6.856V62.793zm-50 18.04c0-2.508 2.067-4.986 6.092-6.888C10.96 72.069 16.572 70.9 23 70.9c6.547 0 12.157 1.115 16.094 2.962 3.975 1.863 6.006 4.337 6.006 6.97v36.335c0 2.508-2.067 4.986-6.092 6.888-3.969 1.876-9.58 3.045-16.008 3.045-6.428 0-12.04-1.169-16.008-3.045C2.967 122.153.9 119.675.9 117.167V80.833zM23 60l32-32h41l27-27m0 0v14m0-14h-14" stroke="#000" stroke-width="1.8"/></svg>
